svg/incident_active.svg

<svg xmlns="http://www.w3.org/2000/svg" width="24" height="24" viewBox="0 0 24 24"><title>incident_active</title><path d="M0 0h24v24H0z" fill="none"/><path d="M3 12a6 6 0 0 1 4-5.65V4.26a8 8 0 0 0 0 15.48v-2.09A6 6 0 0 1 3 12z"/><path d="M15 4a8 8 0 1 0 8 8 8 8 0 0 0-8-8zm-2.77 2.79l.71.71a3.46 3.46 0 0 0-1.44 2.81h-1a4.49 4.49 0 0 1 1.73-3.52zM15 17a1 1 0 0 1-1-1h2a1 1 0 0 1-1 1zm4-2h-8v-1l1.33-1v-2.33A2.66 2.66 0 0 1 14 8.2V8a1 1 0 0 1 2 0v.2a2.66 2.66 0 0 1 1.67 2.47V13L19 14zm-.5-4.69a3.46 3.46 0 0 0-1.44-2.81l.71-.71a4.49 4.49 0 0 1 1.73 3.52z"/></svg>

<svg xmlns="http://www.w3.org/2000/svg" width="24" height="24" viewBox="0 0 24 24">
  <title>incident_active</title>
  <path d="M0,0H24V24H0Z" fill="none"/>
  <path d="M3,12A6,6,0,0,1,7,6.35V4.26A8,8,0,0,0,7,19.74V17.65A6,6,0,0,1,3,12Z"/>
  <path d="M15,4a8,8,0,1,0,8,8A8,8,0,0,0,15,4ZM12.23,6.79l.71.71a3.46,3.46,0,0,0-1.44,2.81h-1A4.49,4.49,0,0,1,12.23,6.79ZM15,17a1,1,0,0,1-1-1h2A1,1,0,0,1,15,17Zm4-2H11V14l1.33-1V10.67A2.66,2.66,0,0,1,14,8.2V8a1,1,0,0,1,2,0v.2a2.66,2.66,0,0,1,1.67,2.47V13L19,14Zm-.5-4.69A3.46,3.46,0,0,0,17.06,7.5l.71-.71a4.49,4.49,0,0,1,1.73,3.52Z"/>
</svg>
